icon-svg/vac_sbrush.svg

<svg xmlns="http://www.w3.org/2000/svg" viewBox="0 0 24 24"><path fill="#44739e" d="M13.683 12.768 22 9.9l-.447-1.3-8.406 2.9a1.8 1.8 0 0 0-.529-.355v-8.71h-1.374v8.694a1.8 1.8 0 0 0-.412.237l-8.35-3.123L2 9.531l8.153 3.049a2 2 0 0 0-.01.187 1.76 1.76 0 0 0 .3.983L5.1 20.726l1.092.835 5.4-7.053a1.8 1.8 0 0 0 .733-.019l5.391 7.076 1.094-.833-5.377-7.056a1.8 1.8 0 0 0 .25-.908m-1.237.678h-.987l-.418-.784.418-.662h.946l.446.662Z"/></svg>

<?xml version="1.0" encoding="UTF-8"?>
<svg width="24px" fill="#44739e" height="24px" viewBox="0 0 24 24" version="1.1" xmlns="http://www.w3.org/2000/svg" xmlns:xlink="http://www.w3.org/1999/xlink">
            <path d="M 13.683,12.768 22,9.9 21.553,8.6 13.147,11.5 a 1.781,1.781 0 0 0 -0.529,-0.355 v -8.71 h -1.374 v 8.694 a 1.752,1.752 0 0 0 -0.412,0.237 L 2.482,8.243 2,9.531 10.153,12.58 a 1.648,1.648 0 0 0 -0.01,0.187 1.761,1.761 0 0 0 0.3,0.983 l -5.343,6.976 1.092,0.835 5.4,-7.053 a 1.792,1.792 0 0 0 0.733,-0.019 l 5.391,7.076 1.094,-0.833 -5.377,-7.056 a 1.773,1.773 0 0 0 0.25,-0.908 z m -1.237,0.678 H 11.459 L 11.041,12.662 11.459,12 h 0.946 l 0.446,0.662 z"/>

</svg>
